svgs/duotone/power-off.svg

<svg xmlns="http://www.w3.org/2000/svg" viewBox="0 0 512 512"><!--! Font Awesome Pro 6.4.0 by @fontawesome - https://fontawesome.com License - https://fontawesome.com/license (Commercial License) Copyright 2023 Fonticons, Inc. --><defs><style>.fa-secondary{opacity:.4}</style></defs><path class="fa-primary" d="M147.7 75.5c11.3 13.6 9.4 33.8-4.1 45.1C104.7 152.9 80 201.6 80 256c0 97.2 78.8 176 176 176s176-78.8 176-176c0-54.4-24.7-103.1-63.5-135.4c-13.6-11.3-15.4-31.5-4.1-45.1s31.5-15.4 45.1-4.1C462.2 115.4 496 181.8 496 256c0 132.5-107.5 240-240 240S16 388.6 16 256c0-74.2 33.7-140.6 86.6-184.6c13.6-11.3 33.8-9.4 45.1 4.1z"/><path class="fa-secondary" d="M256 0c17.7 0 32 14.3 32 32V256c0 17.7-14.3 32-32 32s-32-14.3-32-32V32c0-17.7 14.3-32 32-32z"/></svg>

<svg xmlns="http://www.w3.org/2000/svg" viewBox="0 0 512 512"><!--! Font Awesome Pro 6.3.0 by @fontawesome - https://fontawesome.com License - https://fontawesome.com/license (Commercial License) Copyright 2023 Fonticons, Inc. --><defs><style>.fa-secondary{opacity:.4}</style></defs><path class="fa-primary" d="M147.7 75.54C158.1 89.13 157.1 109.3 143.5 120.6C104.7 152.9 80 201.6 80 256C80 353.2 158.8 432 256 432C353.2 432 432 353.2 432 256C432 201.6 407.3 152.9 368.5 120.6C354.9 109.3 353 89.13 364.3 75.54C375.6 61.95 395.8 60.1 409.4 71.4C462.2 115.4 496 181.8 496 256C496 388.6 388.5 496 256 496C123.5 496 16 388.6 16 256C16 181.8 49.75 115.4 102.6 71.4C116.2 60.1 136.4 61.95 147.7 75.54V75.54z"/><path class="fa-secondary" d="M256 0C273.7 0 288 14.33 288 32V256C288 273.7 273.7 288 256 288C238.3 288 224 273.7 224 256V32C224 14.33 238.3 0 256 0z"/></svg>
